usr/share/icons/biglinux-icons-material-dark/22/actions/view-certificate-export.svg

<svg xmlns="http://www.w3.org/2000/svg" viewBox="0 0 22 22">
<defs id="defs3051">
<style id="current-color-scheme" type="text/css">
.ColorScheme-Text{color:#dedede}
</style>
</defs>
<path d="M3 5v12h10v-1H4V6h14v5h1V5zm4.5 2C6.669 7 6 7.669 6 8.5V10H5v3h5v-3H9V8.5C9 7.669 8.331 7 7.5 7m0 1c.277 0 .5.223.5.5V10H7V8.5c0-.277.223-.5.5-.5M11 8v1h6V8zm0 2v1h5v-1zm0 2v1h4v-1zm6.5 0-.707.707L19.086 15H14v1h5.086l-2.293 2.293.707.707 2.793-2.793L21 15.5l-.707-.707z" class="ColorScheme-Text" style="fill:currentColor;fill-opacity:1;stroke:none"/>
</svg>

<svg xmlns="http://www.w3.org/2000/svg" viewBox="0 0 22 22">
  <defs id="defs3051">
    <style type="text/css" id="current-color-scheme">
      .ColorScheme-Text {
        color:#dedede;
      }
      </style>
  </defs>
 <path 
    style="fill:currentColor;fill-opacity:1;stroke:none" 
    d="M 3 5 L 3 17 L 13 17 L 13 16 L 4 16 L 4 6 L 18 6 L 18 11 L 19 11 L 19 5 L 3 5 z M 7.5 7 C 6.669 7 6 7.669 6 8.5 L 6 10 L 5 10 L 5 13 L 10 13 L 10 10 L 9 10 L 9 8.5 C 9 7.669 8.331 7 7.5 7 z M 7.5 8 C 7.777 8 8 8.223 8 8.5 L 8 10 L 7 10 L 7 8.5 C 7 8.223 7.223 8 7.5 8 z M 11 8 L 11 9 L 17 9 L 17 8 L 11 8 z M 11 10 L 11 11 L 16 11 L 16 10 L 11 10 z M 11 12 L 11 13 L 15 13 L 15 12 L 11 12 z M 17.5 12 L 16.792969 12.707031 L 19.085938 15 L 14.792969 15 L 14 15 L 14 16 L 19.085938 16 L 16.792969 18.292969 L 17.5 19 L 20.292969 16.207031 L 21 15.5 L 20.292969 14.792969 L 17.5 12 z "
	class="ColorScheme-Text"
    />  
</svg>
